X:2507
T:Cantar d'Aguilandu (CT 444)
R:Aguilandu
C:Tradicional
S:Música Tradicional Asturiana, (C) Tello & Tito. Asturies, 2001.
S:http://pagina.de/MusTradAst <telloytito@asturies.org>
N:Canción empleada por los niños de la escuela pública de Casomera, ayuntamiento de Ayer, para pedir el aguinaldo con objeto de celebrar la fiesta del gallo.
N:(Ver CT 011).
O:Casomera (Ayer)
A:Asturies
Z:Cancioneru de Torner 444
M:2/4
L:1/8
Q:1/4=120
W:Este nuevo regimiento
W:que de niños se ha formado,
W:es el mejor que habrá visto
W:Isabel en su reinado,
W:ni Don Felipe El Hermoso,
W:ni el emperador Don Carlos,
W:porque en materia de guerra
W:es un Cid cada soldado.
K:C
GG
|c3 d|c2 BA|B2 Bc|B3 A|G2 FA|G2 GG|
c3 d|c2 BA|B2 Bc|B3 A|G2 FA|G2 :|


